packages/foundations/assets/icons/functional/images/buildings/train_station_14.svg

<svg width="14" height="14" viewBox="0 0 14 14" fill="none" xmlns="http://www.w3.org/2000/svg">
<g clip-path="url(#clip0_184_223)">
<path fill-rule="evenodd" clip-rule="evenodd" d="M9.79999 1.39996C10.194 1.39996 10.5 1.70596 10.5 2.09996V6.29996H11.9C12.294 6.29996 12.6 6.60596 12.6 6.99996V11.9C12.6013 11.9923 12.5842 12.0839 12.5495 12.1694C12.5148 12.255 12.4632 12.3327 12.398 12.3979C12.3327 12.4632 12.255 12.5147 12.1695 12.5494C12.0839 12.5841 11.9923 12.6013 11.9 12.6H8.39999C8.30773 12.6012 8.21616 12.5839 8.13069 12.5491C8.04522 12.5144 7.96757 12.4629 7.90232 12.3976C7.83708 12.3324 7.78556 12.2547 7.75081 12.1693C7.71606 12.0838 7.69878 11.9922 7.69999 11.9V10.5H6.29999V11.9C6.30134 11.9923 6.28415 12.0839 6.24945 12.1694C6.21475 12.255 6.16324 12.3327 6.09797 12.3979C6.0327 12.4632 5.95499 12.5147 5.86946 12.5494C5.78392 12.5841 5.69229 12.6013 5.59999 12.6H2.09999C2.00773 12.6012 1.91616 12.5839 1.83069 12.5491C1.74521 12.5144 1.66757 12.4629 1.60232 12.3976C1.53708 12.3324 1.48556 12.2547 1.45081 12.1693C1.41606 12.0838 1.39878 11.9922 1.39999 11.9V6.99996C1.39999 6.60596 1.70599 6.29996 2.09999 6.29996H3.49999V2.09996C3.49999 1.70596 3.80599 1.39996 4.19999 1.39996H9.79999ZM9.09999 2.79996H4.89999V7.69996H2.79999V11.2H4.89999V9.79996C4.89999 9.40596 5.20599 9.09996 5.59999 9.09996H8.39999C8.79399 9.09996 9.09999 9.40596 9.09999 9.79996V11.2H11.2V7.69996H9.09999V2.79996ZM6.29999 6.29996V4.89996H7.69999V6.29996H6.29999Z" fill="#1A1C1F"/>
</g>
<defs>
<clipPath id="clip0_184_223">
<rect width="14" height="14" fill="white"/>
</clipPath>
</defs>
</svg>

<svg xmlns="http://www.w3.org/2000/svg" width="14" height="14" fill="none"><g clip-path="url(#a)"><path fill="#1A1C1F" fill-rule="evenodd" d="M9.8 1.4c.394 0 .7.306.7.7v4.2h1.4c.394 0 .7.306.7.7v4.9a.69.69 0 0 1-.7.7H8.4a.69.69 0 0 1-.7-.7v-1.4H6.3v1.4a.69.69 0 0 1-.7.7H2.1a.69.69 0 0 1-.7-.7V7c0-.394.306-.7.7-.7h1.4V2.1c0-.394.306-.7.7-.7zm-.7 1.4H4.9v4.9H2.8v3.5h2.1V9.8c0-.394.306-.7.7-.7h2.8c.394 0 .7.306.7.7v1.4h2.1V7.7H9.1zM6.3 6.3V4.9h1.4v1.4z" clip-rule="evenodd"/></g><defs><clipPath id="a"><path fill="#fff" d="M0 0h14v14H0z"/></clipPath></defs></svg>
